X:1
T:We Hate to See Them Go
M:6/8
L:1/4
K:G
 D| B3/2 B/2 c3/4 B/4| A3/4 B/4 G3| G E3/4 G/4 G3/4 A/4| G3/2 E/2 D3/4 G/4|\
 G3/4 A/4| G3/2 G/2| A3/4 A/4 A3/4 A/4 A3/4 A/4| A3/4 A/4 A3/4 G/4 F3/4 E/4|\
 D B/2A/2
M:6/8
| G G/2 G A/2| B ^A/2 B| G/2| =A B/2 A F/2| E/2 D z D/2| G F/2 G A/2|\
 B ^A/2 B G/2| A B/2 A G/2| F3/2- F F/2| E ^D/2 E F/2| G F/2 G E/2|\
 D E/2 D B,/2| D3/2- D D/2| A A/2 A A/2| A B/2 A G/2| F D/2 E ^C/2|\
 D3/2- D D/2| E ^D/2 E F/2| G F/2 G E/2| D E/2 D B,/2| D3/2- D D/2|\
 G G/2 G A/2| B B/2 B G/2| A c/2 B A/2| G3/2- G z/2| g3/2- g3/2| d3/2- d B/2|\
 c d/2 e c/2| d3/2- d B/2| A/2A/2c/2 B A/2| B d/2 c B/2| A3/2- A3/2|\
 G3/2 z||
